static/icons/bitcoin.svg

<svg width="48" height="48" viewBox="0 0 48 48" fill="none" xmlns="http://www.w3.org/2000/svg">
<g clip-path="url(#clip0_32_3317)">
<path d="M47.282 29.8038C44.0754 42.6678 31.0421 50.4877 18.1965 47.2809C5.3321 44.0743 -2.48778 31.0415 0.719037 18.1961C3.92566 5.3321 16.94 -2.48777 29.8044 0.719038C42.65 3.90691 50.4888 16.9397 47.282 29.8038Z" fill="url(#paint0_linear_32_3317)"/>
<path d="M35.4271 21.009C35.8959 17.8215 33.4771 16.0965 30.1396 14.9527L31.2271 10.6215L28.6021 9.96523L27.5521 14.184C26.8584 14.0152 26.1459 13.8465 25.4334 13.6965L26.4834 9.45898L23.8584 8.80273L22.7896 13.1152C22.2084 12.984 21.6459 12.8527 21.1021 12.7215V12.7027L17.4646 11.8027L16.7709 14.6152C16.7709 14.6152 18.7209 15.0652 18.6834 15.084C19.7521 15.3465 19.9396 16.059 19.9021 16.6215L18.6646 21.5527C18.7396 21.5715 18.8334 21.5902 18.9459 21.6465C18.8521 21.6277 18.7584 21.609 18.6646 21.5715L16.9396 28.4715C16.8084 28.7902 16.4709 29.2777 15.7396 29.0902C15.7584 29.1277 13.8271 28.6215 13.8271 28.6215L12.5146 31.6402L15.9459 32.5027C16.5834 32.6715 17.2021 32.8215 17.8209 32.9902L16.7334 37.359L19.3584 38.0152L20.4459 33.684C21.1584 33.8715 21.8709 34.059 22.5459 34.2277L21.4771 38.5402L24.1021 39.1965L25.1896 34.8277C29.6896 35.6715 33.0646 35.334 34.4709 31.2652C35.6146 28.0027 34.4146 26.109 32.0521 24.8715C33.7959 24.4777 35.0896 23.334 35.4271 21.009ZM29.4084 29.4465C28.6021 32.709 23.0896 30.9465 21.3084 30.4965L22.7521 24.7027C24.5334 25.1527 30.2709 26.034 29.4084 29.4465ZM30.2334 20.9527C29.4834 23.934 24.9084 22.4152 23.4271 22.0402L24.7396 16.7902C26.2209 17.1652 31.0021 17.859 30.2334 20.9527Z" fill="white"/>
</g>
<defs>
<linearGradient id="paint0_linear_32_3317" x1="23.987" y1="-0.01152" x2="23.987" y2="47.9951" gradientUnits="userSpaceOnUse">
<stop stop-color="#F9AA4B"/>
<stop offset="1" stop-color="#F7931A"/>
</linearGradient>
<clipPath id="clip0_32_3317">
<rect width="48" height="48" fill="white"/>
</clipPath>
</defs>
</svg>

<svg width="48" height="48" fill="none" xmlns="http://www.w3.org/2000/svg"><g clip-path="url(#a)"><path d="M47.282 29.804c-3.207 12.864-16.24 20.684-29.085 17.477C5.332 44.074-2.488 31.04.718 18.196 3.926 5.332 16.94-2.488 29.804.72 42.65 3.907 50.49 16.939 47.282 29.804Z" fill="url(#b)"/><path d="M35.427 21.009c.469-3.188-1.95-4.913-5.287-6.056l1.087-4.332-2.625-.656-1.05 4.219a69.91 69.91 0 0 0-2.119-.487l1.05-4.238-2.625-.656-1.068 4.312a117.76 117.76 0 0 1-1.688-.393v-.02l-3.637-.9-.694 2.813s1.95.45 1.912.469c1.07.263 1.257.975 1.22 1.538l-1.238 4.93c.075.02.168.038.28.095-.093-.02-.187-.038-.28-.075l-1.725 6.9c-.132.318-.47.806-1.2.618.018.038-1.913-.468-1.913-.468l-1.312 3.018 3.43.863c.638.169 1.257.319 1.876.487l-1.088 4.369 2.625.656 1.088-4.331c.712.188 1.425.375 2.1.544l-1.069 4.312 2.625.657 1.088-4.37c4.5.845 7.875.507 9.28-3.562 1.145-3.262-.055-5.156-2.418-6.393 1.744-.394 3.038-1.538 3.375-3.863Zm-6.019 8.438c-.806 3.262-6.318 1.5-8.1 1.05l1.444-5.794c1.781.45 7.519 1.331 6.656 4.744Zm.825-8.494c-.75 2.981-5.325 1.462-6.806 1.087l1.313-5.25c1.48.375 6.262 1.069 5.493 4.163Z" fill="#fff"/></g><defs><linearGradient id="b" x1="23.987" y1="-.012" x2="23.987" y2="47.995" gradientUnits="userSpaceOnUse"><stop stop-color="#F9AA4B"/><stop offset="1" stop-color="#F7931A"/></linearGradient><clipPath id="a"><path fill="#fff" d="M0 0h48v48H0z"/></clipPath></defs></svg>
